X: 4659
T: Boy In The Gap, The
R: reel
M: 4/4
K: Dmixolydian
|:df~f2 df~f2|^ce~e2 ce~e2|df~f2 defg|a2ge fdde|
f2e^c dBAF|G2BG EFGE|D2FA dfef|=cAGE FDD2:|

